X:6
T:LÃ¤ndler C (LD03030)
B:Hanny Christen. Bd.3 Appenzell. S.10 (LD03030) orig. C-Dur
%%MIDI program 21
O:Switzerland
R:LÃ¤ndler
M:3/4
L:1/8
K:C %%MIDI gchordon
"C"EG CG EG | "G7"FG DG F2 | Bd Gd Bd | "C"ce Ge c2 | EG CG EG | "G7"FG DG F2 | Bd Gd Bd |1 "C"c4 z2 :|2 
"C"c4 GA || "C"G2 ce ec | "G7"Bf fB GA | G2 Bf fB  | "C"ce ec GA | G2 ce ec | "G7"Bf fB GA | G2 Bf fB | "C"c6 |] 

